X:78
T:Get Up and Bar the Door
C:arr. Carlo Minasi
M:2/4
L:1/8
B:Chappell's One Hundred Scotch Melodies
B:Arranged for the Concertina by Carlo Minasi
Q:"Allegretto  "1/4=120
Z:Peter Dunk 2012
K:F
!p!C|[FCA,]>F[FCA,]>F|[FCA,]>F [FB,G,]F/F/|\
([FCA,]f) ([gcA]e)|L[d2B2F2] [cAF]>c|\
([cA]>[dB][fA]>[dB])|
%
([d/B/][c/A/][AF]) H[GEC](F/D/)|\
([FCA,]G/A/) GF|L([D2B,2] [FA,]) C|\
[FCA,]>F[FCA,]>F|[FCA,]>F [FB,G,]F/F/|
%
([FCA,]f) ([gcA]e)|L[d2B2F2] [cAF]>c|\
([cA]>[dB][fA]>[dB])|([d/B/][c/A/][AF]) H[GEC](F/D/)|\
([FCA,]G/A/) GF|L([D2B,2] [FA,])||

